src/svgs/bandage.svg

<svg xmlns="http://www.w3.org/2000/svg" viewBox="0 0 24 24" width="512" height="512" aria-labelledby="azbandage-desc azbandage-title"><title id="azbandage-title">Bandage Icon</title><desc id="azbandage-desc">A picture depicting a bandage.</desc><path d="M3.212 10.03a3 3 0 010-4.242l2.576-2.576a3 3 0 014.242 0l.556.556-6.818 6.818zm17.5.334L10.364 20.707a4 4 0 01-5.657 0l-1.414-1.414a4 4 0 010-5.657L13.636 3.293a4 4 0 015.657 0l1.414 1.414a4 4 0 010 5.657zM14 5a1 1 0 101-1 1 1 0 00-1 1zm-2.5 2.5a1 1 0 101-1 1 1 0 00-1 1zM9 10a1 1 0 101-1 1 1 0 00-1 1zm-4 6a1 1 0 10-1-1 1 1 0 001 1zm1.75 2.25a1 1 0 10-1 1 1 1 0 001-1zm.75-4.75a1 1 0 10-1-1 1 1 0 001 1zm.75 3.25a1 1 0 10-1-1 1 1 0 001 1zM10 19a1 1 0 10-1 1 1 1 0 001-1zm.75-4.75a1 1 0 10-1-1 1 1 0 001 1zm1.75 2.25a1 1 0 10-1 1 1 1 0 001-1zm.75-4.75a1 1 0 10-1-1 1 1 0 001 1zM15 14a1 1 0 10-1 1 1 1 0 001-1zm.75-4.75a1 1 0 10-1-1 1 1 0 001 1zm1.75 2.25a1 1 0 10-1 1 1 1 0 001-1zm.75-4.75a1 1 0 10-1-1 1 1 0 001 1zM20 9a1 1 0 10-1 1 1 1 0 001-1zm.232 4.414l-6.818 6.818.556.556a3 3 0 004.242 0l2.576-2.576a3 3 0 000-4.242z"/></svg>

<svg xmlns="http://www.w3.org/2000/svg" viewBox="0 0 24 24"><path d="M3.212,10.03a3,3,0,0,1,0-4.242L5.788,3.212a3,3,0,0,1,4.242,0l.556.556L3.768,10.586Zm17.5.334L10.364,20.707a4,4,0,0,1-5.657,0L3.293,19.293a4,4,0,0,1,0-5.657L13.636,3.293a4,4,0,0,1,5.657,0l1.414,1.414A4,4,0,0,1,20.707,10.364ZM14,5a1,1,0,1,0,1-1A1,1,0,0,0,14,5ZM11.5,7.5a1,1,0,1,0,1-1A1,1,0,0,0,11.5,7.5ZM9,10a1,1,0,1,0,1-1A1,1,0,0,0,9,10ZM5,16a1,1,0,1,0-1-1A1,1,0,0,0,5,16Zm1.75,2.25a1,1,0,1,0-1,1A1,1,0,0,0,6.75,18.25ZM7.5,13.5a1,1,0,1,0-1-1A1,1,0,0,0,7.5,13.5Zm.75,3.25a1,1,0,1,0-1-1A1,1,0,0,0,8.25,16.75ZM10,19a1,1,0,1,0-1,1A1,1,0,0,0,10,19Zm.75-4.75a1,1,0,1,0-1-1A1,1,0,0,0,10.75,14.25ZM12.5,16.5a1,1,0,1,0-1,1A1,1,0,0,0,12.5,16.5Zm.75-4.75a1,1,0,1,0-1-1A1,1,0,0,0,13.25,11.75ZM15,14a1,1,0,1,0-1,1A1,1,0,0,0,15,14Zm.75-4.75a1,1,0,1,0-1-1A1,1,0,0,0,15.75,9.25ZM17.5,11.5a1,1,0,1,0-1,1A1,1,0,0,0,17.5,11.5Zm.75-4.75a1,1,0,1,0-1-1A1,1,0,0,0,18.25,6.75ZM20,9a1,1,0,1,0-1,1A1,1,0,0,0,20,9Zm.232,4.414-6.818,6.818.556.556a3,3,0,0,0,4.242,0l2.576-2.576a3,3,0,0,0,0-4.242Z"/></svg>
